svg/blobs-icons/no-decorations/handwash.svg

<svg xmlns="http://www.w3.org/2000/svg" xmlns:xlink="http://www.w3.org/1999/xlink" preserveAspectRatio="xMidYMid" width="215" height="218" viewBox="0 0 215 218"><defs><style>.cls-3{fill:#fccb56}.cls-4{fill:#fbb713}.cls-5{fill:#fff}.cls-6{fill:#000;opacity:.35}.cls-7{fill:#000;opacity:.25}.cls-8{fill:#2476ff}.cls-9{fill:#ff3a2f}</style></defs><g id="group-2svg"><path d="M214.973 129.978c0 37.418-30.333 67.752-67.751 67.752-37.418.0-67.75-30.334-67.75-67.752.0-37.419 30.332-67.753 67.75-67.753 37.418.0 67.751 30.334 67.751 67.753z" id="path-1" class="cls-3" fill-rule="evenodd"/><path d="M196.583 129.978c0 27.263-22.1 49.363-49.361 49.363-27.261.0-49.361-22.1-49.361-49.363.0-27.262 22.1-49.362 49.361-49.362s49.361 22.1 49.361 49.362z" id="path-2" class="cls-4" fill-rule="evenodd"/><path d="M147.221 169.645C145.225 169.645 143.607 168.027 143.607 166.03c0-1.99600000000001 1.618-3.614 3.614-3.614 17.886.0 32.437-14.552 32.437-32.438C179.658 127.983 181.277 126.363 183.273 126.363 185.27 126.363 186.888 127.983 186.888 129.978c0 21.873-17.794 39.667-39.667 39.667z" id="path-3" class="cls-5" fill-rule="evenodd"/><path d="M114.512 166.876C106.783 158.164 102.049 146.732 102.049 134.166c0-27.261 22.1-49.363 49.361-49.363 12.564.0 23.996 4.735 32.709 12.465-9.042-10.193-22.2-16.652-36.897-16.652-27.261.0-49.361 22.1-49.361 49.362C97.861 144.675 104.32 157.834 114.512 166.876z" id="path-4" class="cls-6" fill-rule="evenodd"/><path d="M112.881 188.308C118.37 191.548 124.345 194.018 130.684 195.612V64.344C124.345 65.937 118.37 68.408 112.881 71.647V188.308z" id="path-5" class="cls-7" fill-rule="evenodd"/><path d="M64.401 45.328s-15.177.0-15.177.0C48.494 45.328 47.902 44.737 47.902 44.006V11.007C47.902 10.278 48.494 9.685 49.224 9.685H64.401C65.131 9.685 65.723 10.278 65.723 11.007V44.006C65.723 44.737 65.131 45.328 64.401 45.328z" id="path-6" class="cls-8" fill-rule="evenodd"/><path d="M81.664 68.354s-49.704.0-49.704.0C31.23 68.354 30.638 67.761 30.638 67.032V41.831C30.638 41.101 31.23 40.508 31.961 40.508H81.664C82.395 40.508 82.987 41.1 82.987 41.831V67.032C82.987 67.761 82.395 68.354 81.664 68.354z" id="path-7" class="cls-9" fill-rule="evenodd"/><path d="M112.293 216.877s-110.962.0-110.962.0C.601 216.877.009 216.285.009 215.555V60.037C.009 59.306.601 58.715 1.331 58.715H112.293C113.024 58.715 113.616 59.306 113.616 60.037V215.555C113.616 216.285 113.024 216.877 112.293 216.877z" id="path-8" class="cls-8" fill-rule="evenodd"/><path d="M102.713 19.325s-65.07.0-65.07.0c-3.254.0-5.891-2.638-5.891-5.891V5.89c0-3.522 3.07-6.259 6.57-5.852l65.069 7.544C106.362 7.927 108.604 10.443 108.604 13.434 108.604 16.687 105.966 19.325 102.713 19.325z" id="path-9" class="cls-8" fill-rule="evenodd"/><path d="M105.294 101.733s-24.505.0-24.505.0C79.79 101.733 78.982 100.924 78.982 99.926S79.79 98.119 80.789 98.119h24.505C106.293 98.119 107.101 98.928 107.101 99.926S106.293 101.733 105.294 101.733z" id="path-10" class="cls-5" fill-rule="evenodd"/><path d="M105.294 146.285s-24.505.0-24.505.0C79.79 146.285 78.982 145.477 78.982 144.478 78.982 143.481 79.79 142.672 80.789 142.672h24.505C106.293 142.672 107.101 143.481 107.101 144.478 107.101 145.477 106.293 146.285 105.294 146.285z" id="path-11" class="cls-5" fill-rule="evenodd"/><path d="M105.294 190.838s-24.505.0-24.505.0C79.79 190.838 78.982 190.03 78.982 189.031 78.982 188.033 79.79 187.224 80.789 187.224h24.505C106.293 187.224 107.101 188.033 107.101 189.031 107.101 190.03 106.293 190.838 105.294 190.838z" id="path-12" class="cls-5" fill-rule="evenodd"/><path d="M20.751 196.525C18.754 196.525 17.136 194.907 17.136 192.91V101.926c0-1.996 1.618-3.615 3.615-3.615 1.996.0 3.614 1.619 3.614 3.615V192.91C24.365 194.907 22.747 196.525 20.751 196.525z" id="path-13" class="cls-5" fill-rule="evenodd"/><path d="M65.723 30.232s0-10.269.0-10.269-17.821.0-17.821.0.0 5.448.0 5.448 17.821 4.821 17.821 4.821z" id="path-14" class="cls-6" fill-rule="evenodd"/></g></svg>

<svg xmlns="http://www.w3.org/2000/svg" xmlns:xlink="http://www.w3.org/1999/xlink" preserveAspectRatio="xMidYMid" width="215" height="218" viewBox="0 0 215 218">
  <defs>
    <style>

      .cls-3 {
        fill: #fccb56;
      }

      .cls-4 {
        fill: #fbb713;
      }

      .cls-5 {
        fill: #ffffff;
      }

      .cls-6 {
        fill: #000000;
        opacity: 0.35;
      }

      .cls-7 {
        fill: #000000;
        opacity: 0.25;
      }

      .cls-8 {
        fill: #2476ff;
      }

      .cls-9 {
        fill: #ff3a2f;
      }
    </style>
  </defs>
  <g id="group-2svg">
    <path d="M214.973,129.978 C214.973,167.396 184.640,197.730 147.222,197.730 C109.804,197.730 79.472,167.396 79.472,129.978 C79.472,92.559 109.804,62.225 147.222,62.225 C184.640,62.225 214.973,92.559 214.973,129.978 Z" id="path-1" class="cls-3" fill-rule="evenodd"/>
    <path d="M196.583,129.978 C196.583,157.241 174.483,179.341 147.222,179.341 C119.961,179.341 97.861,157.241 97.861,129.978 C97.861,102.716 119.961,80.616 147.222,80.616 C174.483,80.616 196.583,102.716 196.583,129.978 Z" id="path-2" class="cls-4" fill-rule="evenodd"/>
    <path d="M147.221,169.645 C145.225,169.645 143.607,168.027 143.607,166.030 C143.607,164.034 145.225,162.416 147.221,162.416 C165.107,162.416 179.658,147.864 179.658,129.978 C179.658,127.983 181.277,126.363 183.273,126.363 C185.270,126.363 186.888,127.983 186.888,129.978 C186.888,151.851 169.094,169.645 147.221,169.645 Z" id="path-3" class="cls-5" fill-rule="evenodd"/>
    <path d="M114.512,166.876 C106.783,158.164 102.049,146.732 102.049,134.166 C102.049,106.905 124.149,84.803 151.410,84.803 C163.974,84.803 175.406,89.538 184.119,97.268 C175.077,87.075 161.919,80.616 147.222,80.616 C119.961,80.616 97.861,102.716 97.861,129.978 C97.861,144.675 104.320,157.834 114.512,166.876 Z" id="path-4" class="cls-6" fill-rule="evenodd"/>
    <path d="M112.881,188.308 C118.370,191.548 124.345,194.018 130.684,195.612 C130.684,195.612 130.684,64.344 130.684,64.344 C124.345,65.937 118.370,68.408 112.881,71.647 C112.881,71.647 112.881,188.308 112.881,188.308 Z" id="path-5" class="cls-7" fill-rule="evenodd"/>
    <path d="M64.401,45.328 C64.401,45.328 49.224,45.328 49.224,45.328 C48.494,45.328 47.902,44.737 47.902,44.006 C47.902,44.006 47.902,11.007 47.902,11.007 C47.902,10.278 48.494,9.685 49.224,9.685 C49.224,9.685 64.401,9.685 64.401,9.685 C65.131,9.685 65.723,10.278 65.723,11.007 C65.723,11.007 65.723,44.006 65.723,44.006 C65.723,44.737 65.131,45.328 64.401,45.328 Z" id="path-6" class="cls-8" fill-rule="evenodd"/>
    <path d="M81.664,68.354 C81.664,68.354 31.960,68.354 31.960,68.354 C31.230,68.354 30.638,67.761 30.638,67.032 C30.638,67.032 30.638,41.831 30.638,41.831 C30.638,41.101 31.230,40.508 31.961,40.508 C31.961,40.508 81.664,40.508 81.664,40.508 C82.395,40.508 82.987,41.100 82.987,41.831 C82.987,41.831 82.987,67.032 82.987,67.032 C82.987,67.761 82.395,68.354 81.664,68.354 Z" id="path-7" class="cls-9" fill-rule="evenodd"/>
    <path d="M112.293,216.877 C112.293,216.877 1.331,216.877 1.331,216.877 C0.601,216.877 0.009,216.285 0.009,215.555 C0.009,215.555 0.009,60.037 0.009,60.037 C0.009,59.306 0.601,58.715 1.331,58.715 C1.331,58.715 112.293,58.715 112.293,58.715 C113.024,58.715 113.616,59.306 113.616,60.037 C113.616,60.037 113.616,215.555 113.616,215.555 C113.616,216.285 113.024,216.877 112.293,216.877 Z" id="path-8" class="cls-8" fill-rule="evenodd"/>
    <path d="M102.713,19.325 C102.713,19.325 37.643,19.325 37.643,19.325 C34.389,19.325 31.752,16.687 31.752,13.434 C31.752,13.434 31.752,5.890 31.752,5.890 C31.752,2.368 34.822,-0.369 38.322,0.038 C38.322,0.038 103.391,7.582 103.391,7.582 C106.362,7.927 108.604,10.443 108.604,13.434 C108.604,13.434 108.604,13.434 108.604,13.434 C108.604,16.687 105.966,19.325 102.713,19.325 Z" id="path-9" class="cls-8" fill-rule="evenodd"/>
    <path d="M105.294,101.733 C105.294,101.733 80.789,101.733 80.789,101.733 C79.790,101.733 78.982,100.924 78.982,99.926 C78.982,98.928 79.790,98.119 80.789,98.119 C80.789,98.119 105.294,98.119 105.294,98.119 C106.293,98.119 107.101,98.928 107.101,99.926 C107.101,100.924 106.293,101.733 105.294,101.733 Z" id="path-10" class="cls-5" fill-rule="evenodd"/>
    <path d="M105.294,146.285 C105.294,146.285 80.789,146.285 80.789,146.285 C79.790,146.285 78.982,145.477 78.982,144.478 C78.982,143.481 79.790,142.672 80.789,142.672 C80.789,142.672 105.294,142.672 105.294,142.672 C106.293,142.672 107.101,143.481 107.101,144.478 C107.101,145.477 106.293,146.285 105.294,146.285 Z" id="path-11" class="cls-5" fill-rule="evenodd"/>
    <path d="M105.294,190.838 C105.294,190.838 80.789,190.838 80.789,190.838 C79.790,190.838 78.982,190.030 78.982,189.031 C78.982,188.033 79.790,187.224 80.789,187.224 C80.789,187.224 105.294,187.224 105.294,187.224 C106.293,187.224 107.101,188.033 107.101,189.031 C107.101,190.030 106.293,190.838 105.294,190.838 Z" id="path-12" class="cls-5" fill-rule="evenodd"/>
    <path d="M20.751,196.525 C18.754,196.525 17.136,194.907 17.136,192.910 C17.136,192.910 17.136,101.926 17.136,101.926 C17.136,99.930 18.754,98.311 20.751,98.311 C22.747,98.311 24.365,99.930 24.365,101.926 C24.365,101.926 24.365,192.910 24.365,192.910 C24.365,194.907 22.747,196.525 20.751,196.525 Z" id="path-13" class="cls-5" fill-rule="evenodd"/>
    <path d="M65.723,30.232 C65.723,30.232 65.723,19.963 65.723,19.963 C65.723,19.963 47.902,19.963 47.902,19.963 C47.902,19.963 47.902,25.411 47.902,25.411 C47.902,25.411 65.723,30.232 65.723,30.232 Z" id="path-14" class="cls-6" fill-rule="evenodd"/>
  </g>
</svg>
